festivallovers/public/icons/socialmedia_twitter.svg

<?xml version="1.0" encoding="UTF-8" standalone="no"?>
<svg width="24px" height="20px" viewBox="0 0 24 20" version="1.1" xmlns="http://www.w3.org/2000/svg" xmlns:xlink="http://www.w3.org/1999/xlink">
    <!-- Generator: Sketch 39.1 (31720) - http://www.bohemiancoding.com/sketch -->
    <title>socialmedia_twitter</title>
    <desc>Created with Sketch.</desc>
    <defs></defs>
    <g id="Icons" stroke="none" stroke-width="1" fill="none" fill-rule="evenodd">
        <g id="socialmedia_twitter" transform="translate(-12.000000, -14.000000)" fill="#000000">
            <g transform="translate(12.000000, 14.000000)" id="Shape">
                <path d="M23.9976585,2.32321064 C23.0556452,2.72839024 22.1134191,2.98142794 21.1718315,3.08306874 C22.2353348,2.44496674 22.9546962,1.54350333 23.32949,0.378731707 C22.3566652,0.955955654 21.3186519,1.35086475 20.2147051,1.56367184 C19.2422528,0.530554324 18.047255,0.0137827051 16.6289135,0.0137827051 C15.2718226,0.0137827051 14.114714,0.492292683 13.1571619,1.4495255 C12.2001419,2.4067051 11.7215787,3.56381375 11.7215787,4.92101109 C11.7215787,5.28558758 11.7620222,5.6604878 11.843122,6.04533925 C9.83755211,5.94407095 7.95618625,5.44017738 6.1987051,4.53365854 C4.44133038,3.62703326 2.9498714,2.41915743 1.72432816,0.910031042 C1.27865188,1.66951663 1.05573392,2.49514856 1.05573392,3.38644789 C1.05573392,4.22713969 1.25321508,5.0071663 1.64844346,5.72631486 C2.04340576,6.44535698 2.57529047,7.02768958 3.24383149,7.47341907 C2.4536408,7.44298004 1.71427051,7.2352816 1.02561419,6.85037694 L1.02561419,6.91114856 C1.02561419,8.09630155 1.39785366,9.13681596 2.14222616,10.03349 C2.8867051,10.9300576 3.82621729,11.4944035 4.96054989,11.7274856 C4.53509534,11.8387583 4.10453215,11.8944745 3.66907317,11.8944745 C3.38543681,11.8944745 3.07647007,11.8691973 2.74227938,11.8189091 C3.05624834,12.8012062 3.63363193,13.6086918 4.47421729,14.2420576 C5.31496231,14.8751042 6.26708647,15.2014191 7.33064302,15.2221729 C5.54804435,16.6197073 3.51725055,17.3184745 1.23826164,17.3184745 C0.802643016,17.3184745 0.407733925,17.2986253 0.0531618625,17.2578625 C2.33220399,18.7263858 4.8441153,19.4606475 7.58905543,19.4606475 C9.33121064,19.4606475 10.9670421,19.1849401 12.4960177,18.6327805 C14.0257384,18.0809933 15.3322217,17.3414102 16.4161064,16.4144568 C17.4996718,15.4877162 18.4342882,14.4216585 19.2191574,13.2163902 C20.0040798,12.0110155 20.5888071,10.7526386 20.974031,9.44099335 C21.3587761,8.12908204 21.5513082,6.81514856 21.5513082,5.49818182 C21.5513082,5.21454545 21.5461996,5.00195122 21.5360355,4.86007982 C22.4985366,4.1615255 23.3189534,3.31561863 23.9976585,2.32321064 L23.9976585,2.32321064 Z"></path>
            </g>
        </g>
    </g>
</svg>

<?xml version="1.0" encoding="utf-8"?>
<!-- Generator: Adobe Illustrator 22.1.0, SVG Export Plug-In . SVG Version: 6.00 Build 0)  -->
<svg version="1.1" id="Ebene_1" xmlns="http://www.w3.org/2000/svg" xmlns:xlink="http://www.w3.org/1999/xlink" x="0px" y="0px"
	 viewBox="0 0 24 20" style="enable-background:new 0 0 24 20;" xml:space="preserve">
<style type="text/css">
	.st0{fill:#767676;}
</style>
<title>socialmedia_twitter</title>
<desc>Created with Sketch.</desc>
<g id="Icons">
	<g id="socialmedia_twitter" transform="translate(-12.000000, -14.000000)">
		<g id="Shape" transform="translate(12.000000, 14.000000)">
			<path class="st0" d="M24,2.3c-0.9,0.4-1.9,0.7-2.8,0.8c1.1-0.6,1.8-1.5,2.2-2.7c-1,0.6-2,1-3.1,1.2c-1-1-2.2-1.5-3.6-1.5
				c-1.4,0-2.5,0.5-3.5,1.4c-1,1-1.4,2.1-1.4,3.5c0,0.4,0,0.7,0.1,1.1C9.8,5.9,8,5.4,6.2,4.5C4.4,3.6,2.9,2.4,1.7,0.9
				C1.3,1.7,1.1,2.5,1.1,3.4c0,0.8,0.2,1.6,0.6,2.3C2,6.4,2.6,7,3.2,7.5C2.5,7.4,1.7,7.2,1,6.9v0.1C1,8.1,1.4,9.1,2.1,10
				c0.7,0.9,1.7,1.5,2.8,1.7c-0.4,0.1-0.9,0.2-1.3,0.2c-0.3,0-0.6,0-0.9-0.1c0.3,1,0.9,1.8,1.7,2.4c0.8,0.6,1.8,1,2.9,1
				c-1.8,1.4-3.8,2.1-6.1,2.1c-0.4,0-0.8,0-1.2-0.1c2.3,1.5,4.8,2.2,7.5,2.2c1.7,0,3.4-0.3,4.9-0.8c1.5-0.6,2.8-1.3,3.9-2.2
				c1.1-0.9,2-2,2.8-3.2C20,12,20.6,10.8,21,9.4c0.4-1.3,0.6-2.6,0.6-3.9c0-0.3,0-0.5,0-0.6C22.5,4.2,23.3,3.3,24,2.3L24,2.3z"/>
		</g>
	</g>
</g>
</svg>
